icons/breezeLight/actions/24/zoom-in.svg

<svg viewBox="0 0 24 24" xmlns="http://www.w3.org/2000/svg"><g fill="#4d4d4d"><path d="m9 4v1h2v-1z"/><path d="m13 4v1h2v-1z"/><path d="m17 4v1h2v2h1v-3z"/><path d="m20 9h-1v2h1z"/><path d="m20 13h-1v2h1z"/><path d="m20 17h-1v2h-2v1h3z"/><path d="m13 19v1h2v-1z"/><path d="m7 5v-1h-3v3h1v-2z"/><path d="m4 9v2h1v-2z"/><path d="m4 14v6h6v-6zm1 1h4v4h-4z"/><path d="m13 7v1h2.292969l-3.646485 3.646484.707032.707032 3.646484-3.6464848v2.2929688h1v-4z"/><path d="m5 15h4v4h-4z" fill-opacity=".501961"/></g></svg>

<?xml version="1.0" encoding="UTF-8" standalone="no"?>
<svg
   xmlns:dc="http://purl.org/dc/elements/1.1/"
   xmlns:cc="http://creativecommons.org/ns#"
   xmlns:rdf="http://www.w3.org/1999/02/22-rdf-syntax-ns#"
   xmlns:svg="http://www.w3.org/2000/svg"
   xmlns="http://www.w3.org/2000/svg"
   xmlns:sodipodi="http://sodipodi.sourceforge.net/DTD/sodipodi-0.dtd"
   xmlns:inkscape="http://www.inkscape.org/namespaces/inkscape"
   viewBox="0 0 24 24"
   version="1.1"
   id="svg6"
   sodipodi:docname="zoom-in.svg"
   inkscape:version="0.92.4 (5da689c313, 2019-01-14)">
  <metadata
     id="metadata10">
    <rdf:RDF>
      <cc:Work
         rdf:about="">
        <dc:format>image/svg+xml</dc:format>
        <dc:type
           rdf:resource="http://purl.org/dc/dcmitype/StillImage" />
        <dc:title />
      </cc:Work>
    </rdf:RDF>
  </metadata>
  <sodipodi:namedview
     pagecolor="#ffffff"
     bordercolor="#666666"
     borderopacity="1"
     objecttolerance="10"
     gridtolerance="10"
     guidetolerance="10"
     inkscape:pageopacity="0"
     inkscape:pageshadow="2"
     inkscape:window-width="1606"
     inkscape:window-height="1411"
     id="namedview8"
     showgrid="true"
     inkscape:zoom="39.333333"
     inkscape:cx="7.647531"
     inkscape:cy="11.172198"
     inkscape:window-x="2013"
     inkscape:window-y="467"
     inkscape:window-maximized="0"
     inkscape:current-layer="svg6">
    <inkscape:grid
       type="xygrid"
       id="grid817"
       empspacing="8" />
  </sodipodi:namedview>
  <defs
     id="defs3051">
    <style
       type="text/css"
       id="current-color-scheme">
      .ColorScheme-Text {
        color:#4d4d4d;
      }
      </style>
  </defs>
  <path
     style="fill:#4d4d4d;fill-opacity:1;stroke:none;stroke-opacity:1"
     d="m 9,4 v 1 h 2 V 4 Z"
     id="path914" />
  <path
     style="fill:#4d4d4d;fill-opacity:1;stroke:none;stroke-opacity:1"
     d="m 13,4 v 1 h 2 V 4 Z"
     id="path910" />
  <path
     style="fill:#4d4d4d;fill-opacity:1;stroke:none;stroke-opacity:1"
     d="m 17,4 v 1 h 2 v 2 h 1 V 4 Z"
     id="path906" />
  <path
     style="fill:#4d4d4d;fill-opacity:1;stroke:none;stroke-opacity:1"
     d="m 20,9 h -1 v 2 h 1 z"
     id="path902" />
  <path
     style="fill:#4d4d4d;fill-opacity:1;stroke:none;stroke-opacity:1"
     d="m 20,13 h -1 v 2 h 1 z"
     id="path898" />
  <path
     style="fill:#4d4d4d;fill-opacity:1;stroke:none;stroke-opacity:1"
     d="m 20,17 h -1 v 2 h -2 v 1 h 3 z"
     id="path894" />
  <path
     style="fill:#4d4d4d;fill-opacity:1;stroke:none;stroke-opacity:1"
     d="M 13 19 L 13 20 L 15 20 L 15 19 L 13 19 z "
     id="path890" />
  <path
     style="fill:#4d4d4d;fill-opacity:1;stroke:none;stroke-opacity:1"
     d="M 7,5 V 4 H 4 V 7 H 5 V 5 Z"
     id="path874" />
  <path
     style="fill:#4d4d4d;fill-opacity:1;stroke:none;stroke-opacity:1"
     d="M 4 9 L 4 11 L 5 11 L 5 9 L 4 9 z "
     id="path870" />
  <path
     style="fill:#4d4d4d;fill-opacity:1;stroke:none;stroke-opacity:1"
     d="M 4 14 L 4 20 L 10 20 L 10 14 L 4 14 z M 5 15 L 9 15 L 9 19 L 5 19 L 5 15 z "
     id="rect832" />
  <path
     style="fill:#4d4d4d;fill-opacity:1;stroke:none;stroke-width:0.80000001;stroke-opacity:1"
     d="M 13 7 L 13 8 L 15.292969 8 L 11.646484 11.646484 L 12.353516 12.353516 L 16 8.7070312 L 16 11 L 17 11 L 17 7 L 13 7 z "
     id="rect840" />
  <rect
     style="fill:#4d4d4d;fill-opacity:0.50196078;stroke:none;stroke-opacity:1"
     id="rect824"
     width="4"
     height="4"
     x="5"
     y="15" />
</svg>
